X:699
T: EIN SULTAN HATT EIN TOECHTERLEIN
N: E2127A
O: Europa, Mitteleuropa, Deutschland, Schlesien, Glatz
R: geistlich, Heiligen - Lied, Legende
M: 3/4
L: 1/8
K: G
D | GGG2A2 | cBB3
c | Bdc2B2 | A2G2z
D | GGG2A2 | cBB3
c | Bdc2B2 | A2G2z
d | ddB2d2 | dBc3
c | BAG2A2 | D2G2z
d | ddB2d2 | dBc3
c | BAG2A2 | D2G2z

@@@ Tune index: 5383
